media/many-pages.svg

<svg width="11" height="11" viewBox="0 0 11 11" xmlns="http://www.w3.org/2000/svg"><path d="M7.7 0h-6.6c-.605 0-1.1.495-1.1 1.1v6.6c0 .605.495 1.1 1.1 1.1h6.6c.605 0 1.1-.495 1.1-1.1v-6.6c0-.605-.495-1.1-1.1-1.1zm-5.5 11h7.7c.605 0 1.1-.495 1.1-1.1v-7.7h-1.1v7.7h-7.7v1.1z" fill="#229ED3" fill-rule="evenodd"/></svg>

<svg width="11" height="11" viewBox="0 0 11 11" xmlns="http://www.w3.org/2000/svg"><path d="M7.7 0H1.1C.495 0 0 .495 0 1.1v6.6c0 .605.495 1.1 1.1 1.1h6.6c.605 0 1.1-.495 1.1-1.1V1.1C8.8.495 8.305 0 7.7 0zM2.2 11h7.7c.605 0 1.1-.495 1.1-1.1V2.2H9.9v7.7H2.2V11z" fill="#229ED3" fill-rule="evenodd"/></svg>
